X: 09
T: FUN AND FIDDLES
%R: jig
B: Button & Whitaker "Twelve Elegant New Dances for the Year 1810", London 1810
F: http://imslp.org/wiki/Button_and_Whitaker's_Elegant_New_Dances_for_1810_(Various)
Z: 2018-6-25  John Chambers <jc:trillian.mit.edu>
M: 6/8
L: 1/8
K: Bb
% - - - - - - - - - - - - - - - - - - - - - - - - - - - - -
% Voice 1 formatted for compactness.
V: 1
B |\
d2d f2f | gab b2d | cde e2c | ABc c2c |\
d2d f2f | gab b2d | c2c edc | B2B B2 H:|
c |\
edc c2c | fed d2d | bag fed | edc c2c |\
def def | gab gab | fed edc | Bfd B2 "D.C."y|]
% - - - - - - - - - - - - - - - - - - - - - - - - - - - - -
% Voice 2 preserves the original staff breaks.
V: 2 clef=bass middle=d
z |\
B2b B2b | B2b B2b | F2f F2f | F2f F2f | B2b B2b |
B2b B2b | F2f F2f | B2b B2 H:| z | F2f F2z | B2b B2z | B2b B2b |
F2f F2f | B2B B2B | E2e E2e | F2f F2f | B2b B2 "D.C."y|]
% - - - - - - - - - - Dance description - - - - - - - - - -
%%begintext align
%% Half right & left, back again, down the mid: up again, Swing corners.
%%endtext
% %center -------------------------
% %center Button & Whitaker "Twelve Elegant New Dances for the Year 1810"
